X: 196b
T: The Silver Spire Flute
T:John Brennan's
R:reel
M:C|
K:D
DF~F2 DFAc|dcde fdAF|G2BG FADF|GFED EGFE|
D2FE DFAc|dcde fdAF|GABG FADF|1 EAFE D3A:|2 EAFE D2FG||
|:ABcd EFGE|FDEF GABc|dBBA Bcde|fdgf e2dc|
defd ceAc|dcdB ADFA|GABG FADF|1 EAFE D3A:|2 EAFE D2FG||


